assets/images/common/logo_black.svg

<svg width="70" height="24" viewBox="0 0 70 24" fill="none" xmlns="http://www.w3.org/2000/svg">
<path d="M66.6466 23.9989H53.6399C51.819 23.9989 50.2871 22.5408 50.2871 20.6161V4.40228C50.2871 2.47761 51.819 1.01953 53.6399 1.01953H66.6466C68.4675 1.01953 69.9994 2.47761 69.9994 4.40228V20.6161C69.9994 22.5408 68.4675 23.9989 66.6466 23.9989ZM66.0107 19.8579V5.16048C66.0107 4.86886 65.7795 4.63557 65.4905 4.63557H54.7961C54.5071 4.63557 54.2758 4.86886 54.2758 5.16048V19.8579C54.2758 20.1495 54.5071 20.3828 54.7961 20.3828H65.4905C65.7795 20.3828 66.0107 20.1495 66.0107 19.8579Z" fill="#222222"/>
<path d="M40.9995 23.9989H26.0273V1.01953H40.9995C43.6875 1.01953 45.7397 3.09 45.7397 5.80203V19.2164C45.7397 21.9284 43.6875 23.9989 40.9995 23.9989ZM41.751 19.2747V5.74371C41.751 5.13132 41.2596 4.63557 40.6526 4.63557H30.0161V20.3828H40.6526C41.2596 20.3828 41.751 19.8871 41.751 19.2747Z" fill="#222222"/>
<path d="M12.7004 24H8.76953V7.90279H12.7004V24ZM12.7004 4.54921H8.76953V0H12.7004V4.54921Z" fill="#222222"/>
<path d="M3.93091 24H0V7.90279H3.93091V24ZM3.93091 4.54921H0V0H3.93091V4.54921Z" fill="#222222"/>
</svg>

<svg xmlns="http://www.w3.org/2000/svg" width="70" height="24" fill="none"><path fill="#222" d="M66.647 23.999H53.64a3.35 3.35 0 0 1-3.353-3.383V4.402A3.35 3.35 0 0 1 53.64 1.02h13.007a3.35 3.35 0 0 1 3.352 3.382v16.214A3.35 3.35 0 0 1 66.647 24m-.636-4.141V5.16a.52.52 0 0 0-.52-.524H54.796a.52.52 0 0 0-.52.524v14.698a.52.52 0 0 0 .52.525H65.49a.52.52 0 0 0 .52-.525M41 23.999H26.027V1.019H41c2.688 0 4.74 2.071 4.74 4.783v13.414C45.74 21.928 43.689 24 41 24m.751-4.724V5.744c0-.613-.491-1.108-1.098-1.108H30.016v15.747h10.637c.607 0 1.098-.496 1.098-1.108M12.7 24H8.77V7.903h3.93zm0-19.45H8.77V0h3.93zM3.93 24H0V7.903h3.93zm0-19.45H0V0h3.93z"/></svg>
